X:1
T:Black-Eyed Mary
M:2/4
L:1/8
K:C
 G| AG Ac| d-c/2-A/2 cd| ed cA| c3c/2-d/2| cA GA| E3/2- D/2 CE| GG DE|\
 D3||
